X: 54
T:Knut Liten og Kongjen
M:2/4
L:1/8
C:anon.
O:Norway
Z:Transcribed by Frank Nordberg - http://www.musicaviva.com
K:Em
E|"Em"E2GF|"C"G2FE|"Em"G2B>^A|
w:Knut li- ten og kon- gjen dei sat i- vi
"Em"B4|"Am"A>GA2|"B"B3B|"G"(dB) "Am"cc|
w:bord. I- se- lil- ja. Dei ta-[ext] la so
"Em"(BG) "G"BB|"Am"(AG) EE|"B"H^D3E|"Em"GA "G"BB|
w:man-[ext] ge dei skjem- tan- de ord. So s\aa- re syr- gjer
"C"c>B "G"BA|"D"A>G "Em"G>F|"B"(^D>E) "Em"HE|]
w:Syl- ve -lin fyr lis- le Knut i l\oyn- dom.
W:
W:"Knut liten, du stiller ditt sylvbugne sverd,
W:   Iselilja,
W:Eg gjev deg mi dotter, du er henne verd."
W:   So s\aare syrgjer Sylvelin fyr lisle Knut i l\oyndom.
W:
W: From "Falaleiro" http://home.t-online.de/home/pheld/homepage.htm

